fs/phone_key_20_filled.svg

<svg viewBox="0 0 20 20" fill="none" xmlns="http://www.w3.org/2000/svg" height="1em" width="1em">
  <path d="M6.5 2C5.67157 2 5 2.67157 5 3.5V16.5C5 17.3284 5.67157 18 6.5 18H9V17C9 16.5896 9.16185 16.2208 9.44133 15.9413L10.3827 15H9C8.72386 15 8.5 14.7761 8.5 14.5C8.5 14.2239 8.72386 14 9 14H11C11.1081 14 11.2082 14.0343 11.29 14.0927L12.021 13.3617C12.0072 13.2195 12 13.078 12 12.9375C12 12.3945 12.1089 11.8722 12.3323 11.3821C12.5443 10.917 12.8339 10.5029 13.1981 10.1456C13.5676 9.78304 13.9956 9.50253 14.4755 9.30776C14.6471 9.23814 14.822 9.18051 15 9.13464V3.5C15 2.67157 14.3284 2 13.5 2H6.5ZM10.5 19C10.3646 19 10.2474 18.9505 10.1484 18.8516C10.0495 18.7526 10 18.6354 10 18.5V17C10 16.8646 10.0495 16.7474 10.1484 16.6484L13.0859 13.7109C13.0286 13.4401 13 13.1823 13 12.9375C13 12.5312 13.0807 12.151 13.2422 11.7969C13.4036 11.4427 13.6224 11.1302 13.8984 10.8594C14.1745 10.5885 14.4922 10.3802 14.8516 10.2344C15.2109 10.0885 15.5938 10.0104 16 10C16.4167 10 16.8073 10.0781 17.1719 10.2344C17.5365 10.3906 17.8542 10.6042 18.125 10.875C18.3958 11.1458 18.6094 11.4635 18.7656 11.8281C18.9219 12.1927 19 12.5833 19 13C19 13.401 18.9245 13.7812 18.7734 14.1406C18.6224 14.5 18.4115 14.8203 18.1406 15.1016C17.8698 15.3828 17.5599 15.6016 17.2109 15.7578C16.862 15.9141 16.4792 15.9948 16.0625 16C15.8802 16 15.7005 15.987 15.5234 15.9609C15.3464 15.9349 15.1719 15.8906 15 15.8281V16.0234C15 16.0964 15.0026 16.1719 15.0078 16.25C15.0078 16.3438 15.0026 16.4349 14.9922 16.5234C14.9818 16.612 14.9583 16.6901 14.9219 16.7578C14.8854 16.8255 14.8333 16.8828 14.7656 16.9297C14.6979 16.9766 14.6094 17 14.5 17H14C14 17.2448 13.9948 17.4323 13.9844 17.5625C13.974 17.6927 13.9349 17.7917 13.8672 17.8594C13.7995 17.9271 13.6979 17.9661 13.5625 17.9766C13.4271 17.987 13.2396 17.9948 13 18V18.2656C13 18.3542 12.9948 18.4401 12.9844 18.5234C12.974 18.6068 12.9531 18.6849 12.9219 18.7578C12.8906 18.8307 12.8411 18.888 12.7734 18.9297C12.7057 18.9714 12.6146 18.9948 12.5 19H10.5ZM17.5 12.25C17.5 12.0417 17.4271 11.8646 17.2812 11.7188C17.1354 11.5729 16.9583 11.5 16.75 11.5C16.5417 11.5 16.3646 11.5729 16.2188 11.7188C16.0729 11.8646 16 12.0417 16 12.25C16 12.4583 16.0729 12.6354 16.2188 12.7812C16.3646 12.9271 16.5417 13 16.75 13C16.9583 13 17.1354 12.9271 17.2812 12.7812C17.4271 12.6354 17.5 12.4583 17.5 12.25Z" fill="#212121"/>
</svg>

<svg viewBox="0 0 20 20" fill="none" xmlns="http://www.w3.org/2000/svg" height="1em" width="1em">
  <path d="M6.5 2A1.5 1.5 0 0 0 5 3.5v13A1.5 1.5 0 0 0 6.5 18H9v-1c0-.41.162-.78.441-1.059l.942-.941H9a.5.5 0 0 1 0-1h2c.108 0 .208.034.29.093l.731-.731a4.392 4.392 0 0 1-.021-.425c0-.542.109-1.065.332-1.555.212-.465.502-.88.866-1.236a3.91 3.91 0 0 1 1.277-.838c.172-.07.347-.127.525-.173V3.5A1.5 1.5 0 0 0 13.5 2h-7Zm4 17a.48.48 0 0 1-.352-.148A.48.48 0 0 1 10 18.5V17a.48.48 0 0 1 .148-.352l2.938-2.937a3.739 3.739 0 0 1-.086-.774c0-.406.08-.786.242-1.14.162-.354.38-.667.656-.938.277-.27.594-.479.954-.625A3.234 3.234 0 0 1 16 10c.417 0 .807.078 1.172.234.364.157.682.37.953.641a3.003 3.003 0 0 1 .016 4.227 2.866 2.866 0 0 1-2.078.898c-.183 0-.362-.013-.54-.04a2.66 2.66 0 0 1-.523-.132v.195c0 .073.003.149.008.227 0 .094-.005.185-.016.273a.65.65 0 0 1-.07.235.492.492 0 0 1-.156.172.457.457 0 0 1-.266.07H14c0 .245-.005.432-.016.563a.454.454 0 0 1-.117.296.468.468 0 0 1-.305.118c-.135.01-.322.018-.562.023v.266c0 .088-.005.174-.016.257a.864.864 0 0 1-.062.235.368.368 0 0 1-.149.172.569.569 0 0 1-.273.07h-2Zm7-6.75a.723.723 0 0 0-.219-.531.723.723 0 0 0-.531-.219.723.723 0 0 0-.531.219.723.723 0 0 0-.219.531c0 .208.073.385.219.531a.723.723 0 0 0 .531.219.723.723 0 0 0 .531-.219.723.723 0 0 0 .219-.531Z" fill="#212121"/>
</svg>
